X:85
T:JACKLTN- Jack Latin
Q:1/4=40
L:1/4
M:2/4
K:A dorian
(G/4A/4B/4c/4) c/g/|d/B/B/g/|d/B/B/g/|d~B|(G/4A/4B/4c/4) c/g/|\
d/B/B/g/|f/A/A/B/|cB/4A3/4::G/4A/4B/4c/4 d/B/|e/c/e/B/|\
e/c/d/B/|d~B|e/c/d/B/|e/c/d/B/|e/A/A/B/|cB/4A3/4|]

